X:1
T:California Girls
T:California Girls
T:Reel
C:Reel
L:1/8
M:4/4
K:D
V:1 treble 
V:1
 AF(3.F.F.F DF(3.F.F.F | AF(3.F.F.F ABde | fdad bdad | eAge cAec | dB{cd}cA BAFE | %5
 D2 (3.D.D.D A2 FA | BG(3.G.G.G Bcde | faec d3 B | AF F2 DF F2 | AF F2 ABde | fdad bdad | %11
 eAge cAAc | d3 B{c} BAFE | D2 (3.F.F.D A2 FA | BG(3.G.G.G Bcde | faec d3 e ||{a} f2{a} fe fafe | %17
 df f2 af f2 | DFAd f3 a | gefd eAce | f2{a} fe fafe | df f2 af f2 | g2 Bg gbag | faeg fdde | %24
 f faf e | df f2 af f2 | DFAd (3.f.f.faf |{ga} gefd eAce | f2{a} fe fafe | df f2 af f2 | %30
 g2{a} gf gbag | faeg fddf || adfa (ab)fb | af{a}fe fgaf | geed efga | ba{b}ag ageg | %36
 adfa{a} b2 fb | af{a}fe fgaf |{ga} geed (3.e.f.e (3.d.c.B | (3.A.B.A (3.G.F.E D3 f | adfa bdfb | %41
 af{a}fe fAdf | geed efgb | af{a}fe fAce | adfa (ab)ab | af{a}fe fgaf | geed (3.e.f.e (3.d.c.B | %47
 (3.A.B.A (3.G.F.E D3 E || FA(3.A.A.A FADF | ADFA bafa |{ga} geed edcB |{c} BAGB AGFE | %52
 FA(3.A.A.A FADF | ADFA bafa |{ga} geed decd | BAFG D3 E | F3 E FADF | ADFA bafa |{ga} geed edcB | %59
{c} BAGB AGFE | FA(3.A.A.A FADF | ADFA bafa |{ga} geed decd | BAFG D4 || %64

